outputs/icons/device/flight_mode_round.svg

<svg xmlns="http://www.w3.org/2000/svg" width="1200" height="1200" fill="none"><g clip-path="url(#a)"><path fill="#000" d="M1074 685 675 450V175c0-41.5-33.5-75-75-75s-75 33.5-75 75v275L126 685c-16 9-26 26.5-26 45 0 35 33.5 60 67 50.5l358-105V950l-113 67.5c-7.5 4.5-12 13-12 21.5v29c0 16.5 15.5 28.5 31 24.5l146-36.5 23-6 19 4.5 21 5.5 95 24 33.5 8.5c16 4 31-8 31-24.5v-29c0-9-4.5-17-12-21.5L675 950V675l358 105c33.5 10 67-15 67-50 0-18.5-10-36-26-45"/></g><defs><clipPath id="a"><path fill="#fff" d="M0 0h1200v1200H0z"/></clipPath></defs></svg>

<svg width="1200" height="1200" viewBox="0 0 1200 1200" fill="none" xmlns="http://www.w3.org/2000/svg"><g clip-path="url(#clip0_231_4436)"><path d="M1074 685L675 450V175C675 133.5 641.5 100 600 100C558.5 100 525 133.5 525 175V450L126 685C110 694 100 711.5 100 730C100 765 133.5 790 167 780.5L525 675.5V950L412 1017.5C404.5 1022 400 1030.5 400 1039V1064V1068C400 1084.5 415.5 1096.5 431 1092.5L577 1056L600 1050L619 1054.5L640 1060L735 1084L768.5 1092.5C784.5 1096.5 799.5 1084.5 799.5 1068V1049.5V1039C799.5 1030 795 1022 787.5 1017.5L675 950V675L1033 780C1066.5 790 1100 765 1100 730C1100 711.5 1090 694 1074 685Z" fill="#1D1E23"/></g><defs><clipPath id="clip0_231_4436"><path width="24" fill="white" d="M0 0H1200V1200H0V0z"/></clipPath></defs></svg>
